; generated by PrusaSlicer 2.8.1+linux-x64-GTK3 on 2025-08-09 at 19:11:11 UTC

; 

; external perimeters extrusion width = 0.45mm
; perimeters extrusion width = 0.45mm
; infill extrusion width = 0.45mm
; solid infill extrusion width = 0.45mm
; top infill extrusion width = 0.45mm
; first layer extrusion width = 0.45mm

;TYPE:Custom
print_start EXTRUDER=210 BED=70
G21 ; set units to millimeters
G90 ; use absolute coordinates
M83 ; use relative distances for extrusion
; Filament gcode
M107
;LAYER_CHANGE
;Z:0.2
;HEIGHT:0.2
G1 E-.5 F1500
G1 Z.2 F2400
G1 X210.841 Y84.059 F42000
G1 Z.2 F2400
G1 E.5 F1200
M204 S2000
;TYPE:External perimeter
;WIDTH:0.449999
G1 F1800
G1 X211.011 Y83.535 E.01865
G1 X211.48 Y82.538 E.03729
G1 X212.071 Y81.608 E.0373
G1 X212.773 Y80.759 E.03729
G1 X213.576 Y80.005 E.03728
G1 X214.468 Y79.357 E.03732
G1 X215.433 Y78.826 E.03728
G1 X216.458 Y78.421 E.03731
G1 X217.525 Y78.147 E.03729
G1 X218.618 Y78.009 E.03729
G1 X219.741 Y78.011 E.03801
G1 X220.813 Y78.147 E.03658
G1 X221.881 Y78.421 E.03732
G1 X222.905 Y78.826 E.03727
G1 X223.871 Y79.357 E.03731
G1 X224.762 Y80.005 E.03729
G1 X225.565 Y80.759 E.03728
G1 X226.268 Y81.608 E.03731
G1 X226.858 Y82.538 E.03728
G1 X227.327 Y83.535 E.03729
G1 X227.668 Y84.583 E.0373
G1 X227.874 Y85.666 E.03732
G1 X227.944 Y86.766 E.03731
G1 X227.909 Y87.315 E.01862
G1 X227.874 Y87.865 E.01865
G1 X227.668 Y88.948 E.03732
G1 X227.327 Y89.996 E.0373
G1 X226.858 Y90.993 E.03729
G1 X226.268 Y91.923 E.03728
G1 X225.565 Y92.772 E.03731
G1 X224.762 Y93.526 E.03728
G1 X223.871 Y94.174 E.03729
G1 X222.905 Y94.705 E.03731
G1 X221.881 Y95.11 E.03727
G1 X220.813 Y95.384 E.03732
G1 X219.72 Y95.523 E.03729
G1 X218.618 Y95.523 E.0373
G1 X217.525 Y95.384 E.03729
G1 X216.458 Y95.11 E.03729
G1 X215.433 Y94.705 E.03731
G1 X214.468 Y94.174 E.03728
G1 X213.576 Y93.526 E.03732
G1 X212.773 Y92.772 E.03728
G1 X212.084 Y91.939 E.03659
G1 X211.48 Y90.992 E.03802
G1 X211.011 Y89.996 E.03726
G1 X210.671 Y88.948 E.03729
G1 X210.464 Y87.865 E.03732
G1 X210.395 Y86.766 E.03727
G1 X210.464 Y85.666 E.03731
G1 X210.67 Y84.583 E.03732
G1 X210.822 Y84.117 E.01659
M204 S7300
G1 X210.946 Y83.736 F42000
G1 X211.209 Y84.242
M204 S2000
;TYPE:Perimeter
G1 F3600
G1 X211.39 Y83.686 E.01979
G1 X211.838 Y82.735 E.03558
G1 X212.401 Y81.848 E.03556
G1 X213.07 Y81.038 E.03556
G1 X213.836 Y80.319 E.03556
G1 X214.686 Y79.701 E.03557
G1 X215.607 Y79.195 E.03557
G1 X216.584 Y78.809 E.03556
G1 X217.601 Y78.547 E.03555
G1 X218.643 Y78.416 E.03555
G1 X219.715 Y78.418 E.03629
G1 X220.737 Y78.547 E.03487
G1 X221.755 Y78.809 E.03558
G1 X222.731 Y79.195 E.03553
G1 X223.652 Y79.701 E.03557
G1 X224.502 Y80.319 E.03557
G1 X225.268 Y81.038 E.03556
G1 X225.938 Y81.848 E.03558
G1 X226.501 Y82.735 E.03556
G1 X226.948 Y83.686 E.03557
G1 X227.273 Y84.685 E.03556
G1 X227.47 Y85.717 E.03556
G1 X227.536 Y86.766 E.03558
G1 X227.503 Y87.29 E.01777
G1 X227.47 Y87.814 E.01777
G1 X227.273 Y88.846 E.03556
G1 X226.948 Y89.845 E.03556
G1 X226.501 Y90.796 E.03557
G1 X225.938 Y91.683 E.03556
G1 X225.268 Y92.493 E.03558
G1 X224.502 Y93.212 E.03556
G1 X223.652 Y93.83 E.03557
G1 X222.731 Y94.336 E.03557
G1 X221.755 Y94.723 E.03554
G1 X220.737 Y94.984 E.03557
G1 X219.695 Y95.115 E.03555
G1 X218.644 Y95.115 E.03558
G1 X217.601 Y94.984 E.03558
G1 X216.584 Y94.723 E.03554
G1 X215.607 Y94.336 E.03557
G1 X214.686 Y93.83 E.03557
G1 X213.836 Y93.212 E.03557
G1 X213.07 Y92.493 E.03556
G1 X212.413 Y91.699 E.03488
G1 X211.837 Y90.795 E.03628
G1 X211.39 Y89.845 E.03554
G1 X211.066 Y88.846 E.03555
G1 X210.869 Y87.814 E.03556
G1 X210.803 Y86.766 E.03554
G1 X210.869 Y85.717 E.03558
G1 X211.066 Y84.685 E.03556
G1 X211.191 Y84.299 E.01373
M204 S7300
G1 X211.191 Y84.299 F42000
G1 X211.578 Y84.425
M204 S2000
G1 F3600
G1 X211.769 Y83.836 E.02096
G1 X212.195 Y82.931 E.03386
G1 X212.731 Y82.088 E.03381
G1 X213.368 Y81.317 E.03385
G1 X214.096 Y80.633 E.03381
G1 X214.905 Y80.046 E.03383
G1 X215.781 Y79.564 E.03384
G1 X216.71 Y79.196 E.03382
G1 X217.678 Y78.948 E.03382
G1 X218.668 Y78.823 E.03378
G1 X219.688 Y78.825 E.03453
G1 X220.66 Y78.948 E.03316
G1 X221.629 Y79.196 E.03386
G1 X222.558 Y79.564 E.03382
G1 X223.434 Y80.046 E.03384
G1 X224.242 Y80.633 E.03381
G1 X224.971 Y81.317 E.03384
G1 X225.608 Y82.088 E.03385
G1 X226.143 Y82.931 E.0338
G1 X226.569 Y83.836 E.03386
G1 X226.878 Y84.786 E.03381
G1 X227.065 Y85.768 E.03384
G1 X227.128 Y86.766 E.03385
G1 X227.096 Y87.264 E.01689
G1 X227.065 Y87.763 E.01692
G1 X226.878 Y88.745 E.03384
G1 X226.569 Y89.695 E.03381
G1 X226.143 Y90.6 E.03386
G1 X225.608 Y91.443 E.0338
G1 X224.971 Y92.214 E.03385
G1 X224.242 Y92.898 E.03384
G1 X223.434 Y93.485 E.03381
G1 X222.558 Y93.967 E.03384
G1 X221.629 Y94.335 E.03382
G1 X220.66 Y94.583 E.03386
G1 X219.669 Y94.708 E.03381
G1 X218.669 Y94.708 E.03385
G1 X217.678 Y94.583 E.03381
G1 X216.71 Y94.335 E.03382
G1 X215.781 Y93.967 E.03382
G1 X214.905 Y93.485 E.03384
G1 X214.096 Y92.898 E.03383
G1 X213.368 Y92.214 E.03381
G1 X212.743 Y91.459 E.03318
G1 X212.195 Y90.599 E.03452
G1 X211.769 Y89.695 E.03383
G1 X211.461 Y88.745 E.0338
G1 X211.273 Y87.763 E.03384
G1 X211.211 Y86.766 E.03381
G1 X211.273 Y85.768 E.03385
G1 X211.461 Y84.786 E.03384
G1 X211.559 Y84.482 E.01081
M204 S7300
G1 E-.5 F1500
G1 X211.559 Y84.482 Z.6 F42000
G1 X214.985 Y93.367
G1 Z.2 F2400
G1 E.5 F1200
M204 S2000
;TYPE:Solid infill
;WIDTH:0.455149
G1 F4690
G1 X213.59 Y91.972 E.06762
G1 X213.007 Y91.267 E.03136
G1 X212.48 Y90.441 E.03358
G1 X212.336 Y90.135 E.01159
G1 X215.816 Y93.614 E.16867
G1 X215.92 Y93.671 E.00407
G1 X216.807 Y94.023 E.03271
G1 X211.935 Y89.15 E.23619
G1 X211.777 Y88.664 E.01752
G1 X211.717 Y88.349 E.01099
G1 X217.592 Y94.225 E.28481
G1 X217.739 Y94.263 E.0052
G1 X218.282 Y94.331 E.01876
G1 X211.592 Y87.642 E.32427
G1 X211.553 Y87.02 E.02136
G1 X218.916 Y94.383 E.35692
G1 X219.499 Y94.383 E.01998
G1 X211.557 Y86.441 E.38499
G1 X211.592 Y85.892 E.01886
G1 X220.033 Y94.334 E.4092
G1 X220.551 Y94.269 E.01789
G1 X211.676 Y85.394 E.43022
G1 X211.77 Y84.904 E.0171
G1 X221.02 Y94.155 E.44842
G1 X221.484 Y94.036 E.01642
G1 X211.909 Y84.461 E.46415
G1 X212.052 Y84.021 E.01586
G1 X221.906 Y93.875 E.47767
G1 X222.323 Y93.709 E.01538
G1 X212.232 Y83.618 E.48916
G1 X212.419 Y83.221 E.01504
G1 X222.709 Y93.512 E.49883
G1 X223.085 Y93.305 E.01471
G1 X212.632 Y82.851 E.50673
G1 X212.858 Y82.495 E.01445
G1 X223.441 Y93.078 E.51301
G1 X223.778 Y92.832 E.0143
G1 X213.099 Y82.153 E.51766
G1 X213.363 Y81.834 E.01419
G1 X224.107 Y92.578 E.52082
G1 X224.408 Y92.296 E.01414
G1 X213.63 Y81.518 E.52246
G1 X213.931 Y81.236 E.01414
G1 X224.708 Y92.013 E.52241
G1 X224.975 Y91.697 E.01418
G1 X214.231 Y80.953 E.52082
G1 X214.56 Y80.699 E.01425
G1 X225.239 Y91.378 E.51766
G1 X225.344 Y91.252 E.00562
G1 X225.48 Y91.036 E.00875
G1 X214.898 Y80.454 E.51296
G1 X215.08 Y80.321 E.00773
G1 X215.253 Y80.226 E.00677
G1 X225.707 Y90.68 E.50676
G1 X225.92 Y90.31 E.01463
G1 X215.629 Y80.019 E.49886
G1 X216.015 Y79.822 E.01485
G1 X226.106 Y89.913 E.48916
G1 X226.286 Y89.511 E.0151
G1 X216.432 Y79.657 E.47767
G1 X216.854 Y79.496 E.01548
G1 X226.429 Y89.071 E.46415
G1 X226.569 Y88.627 E.01596
G1 X217.318 Y79.376 E.44844
G1 X217.787 Y79.262 E.01654
G1 X226.662 Y88.137 E.43022
G1 X226.747 Y87.639 E.01732
G1 X218.305 Y79.197 E.40923
G1 X218.688 Y79.148 E.01324
G1 X218.84 Y79.149 E.00521
G1 X226.781 Y87.09 E.38494
G1 X226.801 Y86.766 E.01113
G1 X226.785 Y86.512 E.00872
G1 X219.424 Y79.15 E.35685
G1 X219.668 Y79.151 E.00836
G1 X220.057 Y79.2 E.01344
G1 X226.746 Y85.89 E.32427
G1 X226.622 Y85.182 E.02464
G1 X220.746 Y79.306 E.28484
G1 X221.531 Y79.508 E.02778
G1 X226.404 Y84.381 E.23622
G1 X226.266 Y83.956 E.01532
G1 X226.002 Y83.397 E.02119
G1 X222.522 Y79.916 E.16872
G1 X223.259 Y80.321 E.02883
G1 X224.034 Y80.885 E.03285
G1 X224.679 Y81.49 E.03031
G1 X225.722 Y82.533 E.05056
M204 S7300
;LAYER_CHANGE
;Z:0.4
;HEIGHT:0.2
;BEFORE_LAYER_CHANGE
;0.4
G92 E0

G1 Z.4 F2400
;AFTER_LAYER_CHANGE
;0.4
G1 X225.722 Y82.533 Z.4 F42000
G1 X226.614 Y81.967
M204 S4000
;TYPE:External perimeter
;WIDTH:0.449999
G1 F3893
G1 X226.946 Y82.49 E.02097
G1 X227.421 Y83.499 E.03775
G1 X227.765 Y84.559 E.03772
G1 X227.974 Y85.653 E.0377
G1 X228.044 Y86.766 E.03775
G1 X228.009 Y87.321 E.01882
G1 X227.974 Y87.878 E.01889
G1 X227.765 Y88.973 E.03773
G1 X227.421 Y90.032 E.03769
G1 X226.946 Y91.041 E.03775
G1 X226.349 Y91.982 E.03772
G1 X225.638 Y92.841 E.03774
G1 X224.826 Y93.603 E.03769
G1 X223.924 Y94.259 E.03775
G1 X222.948 Y94.795 E.03769
G1 X221.912 Y95.206 E.03773
G1 X220.832 Y95.483 E.03774
G1 X219.726 Y95.623 E.03774
G1 X218.612 Y95.623 E.03771
G1 X217.506 Y95.483 E.03774
G1 X216.427 Y95.206 E.03771
G1 X215.391 Y94.795 E.03773
G1 X214.414 Y94.259 E.03772
G1 X213.512 Y93.603 E.03775
G1 X212.7 Y92.841 E.03769
G1 X211.99 Y91.982 E.03772
G1 X211.436 Y91.109 E.035
G1 X210.918 Y90.032 E.04045
G1 X210.573 Y88.973 E.0377
G1 X210.365 Y87.878 E.03773
G1 X210.295 Y86.766 E.03771
G1 X210.365 Y85.653 E.03775
G1 X210.573 Y84.559 E.03769
G1 X210.893 Y83.575 E.03502
G1 X211.393 Y82.489 E.04047
G1 X211.99 Y81.549 E.03769
G1 X212.7 Y80.69 E.03772
G1 X213.512 Y79.928 E.03769
G1 X214.414 Y79.272 E.03775
G1 X215.391 Y78.736 E.03772
G1 X216.427 Y78.325 E.03773
G1 X217.506 Y78.048 E.03771
G1 X218.611 Y77.909 E.0377
G1 X219.806 Y77.919 E.04045
G1 X220.832 Y78.048 E.035
G1 X221.912 Y78.325 E.03774
G1 X222.948 Y78.736 E.03773
G1 X223.924 Y79.272 E.03769
G1 X224.826 Y79.928 E.03775
G1 X225.638 Y80.69 E.03769
G1 X226.349 Y81.549 E.03774
G1 X226.582 Y81.916 E.01471
M204 S7300
G1 X226.796 Y82.254 F42000
G1 X226.238 Y82.134
M204 S4000
;TYPE:Perimeter
G1 F3893
G1 X226.589 Y82.687 E.02217
G1 X227.041 Y83.649 E.03598
G1 X227.37 Y84.66 E.03599
G1 X227.569 Y85.704 E.03597
G1 X227.636 Y86.766 E.03602
G1 X227.603 Y87.296 E.01797
G1 X227.569 Y87.827 E.01801
G1 X227.37 Y88.871 E.03597
G1 X227.041 Y89.882 E.03599
G1 X226.589 Y90.844 E.03598
G1 X226.019 Y91.742 E.036
G1 X225.341 Y92.561 E.03599
G1 X224.566 Y93.289 E.03599
G1 X223.706 Y93.914 E.03599
G1 X222.774 Y94.426 E.03599
G1 X221.786 Y94.818 E.03598
G1 X220.756 Y95.082 E.03599
G1 X219.701 Y95.215 E.03599
G1 X218.638 Y95.215 E.03598
G1 X217.583 Y95.082 E.03599
G1 X216.553 Y94.818 E.03599
G1 X215.564 Y94.426 E.03601
G1 X214.633 Y93.914 E.03596
G1 X213.772 Y93.289 E.03601
G1 X212.997 Y92.561 E.03599
G1 X212.32 Y91.742 E.03597
G1 X211.792 Y90.911 E.03333
G1 X211.296 Y89.88 E.03873
G1 X210.969 Y88.871 E.0359
G1 X210.769 Y87.827 E.03598
G1 X210.703 Y86.766 E.03598
G1 X210.769 Y85.704 E.03602
G1 X210.969 Y84.66 E.03598
G1 X211.273 Y83.724 E.03331
G1 X211.751 Y82.684 E.03874
G1 X212.32 Y81.789 E.0359
G1 X212.997 Y80.97 E.03597
G1 X213.772 Y80.242 E.03599
G1 X214.633 Y79.617 E.03601
G1 X215.564 Y79.105 E.03596
G1 X216.553 Y78.713 E.03601
G1 X217.583 Y78.449 E.03599
G1 X218.635 Y78.316 E.03589
G1 X219.779 Y78.325 E.03872
G1 X220.756 Y78.449 E.03334
G1 X221.786 Y78.713 E.03599
G1 X222.774 Y79.105 E.03598
G1 X223.706 Y79.617 E.03599
G1 X224.566 Y80.242 E.03599
G1 X225.341 Y80.97 E.03599
G1 X226.019 Y81.789 E.03599
G1 X226.206 Y82.084 E.01182
M204 S7300
G1 X226.206 Y82.084 F42000
G1 X225.862 Y82.302
M204 S4000
G1 F3893
G1 X226.231 Y82.883 E.0233
G1 X226.662 Y83.799 E.03427
G1 X226.975 Y84.761 E.03424
G1 X227.164 Y85.756 E.03428
G1 X227.228 Y86.766 E.03426
G1 X227.196 Y87.27 E.01709
G1 X227.164 Y87.776 E.01716
G1 X226.975 Y88.77 E.03425
G1 X226.662 Y89.732 E.03424
G1 X226.231 Y90.648 E.03427
G1 X225.689 Y91.502 E.03424
G1 X225.044 Y92.282 E.03426
G1 X224.306 Y92.975 E.03427
G1 X223.487 Y93.57 E.03427
G1 X222.6 Y94.057 E.03425
G1 X221.659 Y94.43 E.03426
G1 X220.679 Y94.682 E.03425
G1 X219.675 Y94.808 E.03425
G1 X218.663 Y94.808 E.03425
G1 X217.659 Y94.682 E.03425
G1 X216.679 Y94.43 E.03425
G1 X215.738 Y94.057 E.03426
G1 X214.851 Y93.57 E.03425
G1 X214.032 Y92.975 E.03427
G1 X213.295 Y92.282 E.03424
G1 X212.649 Y91.502 E.03428
G1 X212.149 Y90.713 E.03162
G1 X211.675 Y89.728 E.037
G1 X211.364 Y88.77 E.03409
G1 X211.174 Y87.776 E.03425
G1 X211.11 Y86.766 E.03426
G1 X211.174 Y85.756 E.03426
G1 X211.364 Y84.761 E.03429
G1 X211.652 Y83.872 E.03163
G1 X212.11 Y82.879 E.03701
G1 X212.649 Y82.029 E.03407
G1 X213.295 Y81.249 E.03428
G1 X214.032 Y80.556 E.03424
G1 X214.851 Y79.961 E.03427
G1 X215.738 Y79.474 E.03425
G1 X216.679 Y79.101 E.03426
G1 X217.659 Y78.849 E.03425
G1 X218.659 Y78.723 E.03412
G1 X219.752 Y78.732 E.037
G1 X220.679 Y78.849 E.03163
G1 X221.659 Y79.101 E.03425
G1 X222.6 Y79.474 E.03426
G1 X223.487 Y79.961 E.03425
G1 X224.306 Y80.556 E.03427
G1 X225.044 Y81.249 E.03427
G1 X225.689 Y82.029 E.03426
G1 X225.83 Y82.251 E.0089
M204 S7300
G1 E-.5 F1500
G1 X225.83 Y82.251 Z.8 F42000
G1 X214.511 Y80.422
G1 Z.4 F2400
G1 E.5 F1200
;TYPE:Solid infill
;WIDTH:0.38292
G1 F3893
G1 X214.165 Y80.717 E.01285
G1 X213.458 Y81.402 E.02783
G1 X212.794 Y82.132 E.0279
G1 X212.794 Y82.132 F42000
G1 X212.438 Y82.971
G1 F3893
G1 X212.397 Y82.982 E.0012
G1 X212.378 Y82.911 E.00208
G1 X212.449 Y82.93 E.00208
;WIDTH:0.41646
G1 X212.544 Y82.792 E.0052
;WIDTH:0.449999
G1 X212.639 Y82.653 E.0057
G1 X215.091 Y80.201 E.11738
G1 X215.091 Y80.201 F42000
G1 X216.571 Y79.429
;WIDTH:0.38292
G1 F3893
G1 X216.5 Y79.41 E.00208
G1 X216.519 Y79.481 E.00208
G1 X216.56 Y79.47 E.0012
;WIDTH:0.41646
G1 X216.402 Y79.547 E.00546
;WIDTH:0.449999
G1 X216.244 Y79.623 E.00593
G1 X212.024 Y83.844 E.20203
G1 X211.947 Y84.003 E.00598
;WIDTH:0.41646
G1 X211.869 Y84.162 E.0055
;WIDTH:0.38292
G1 X211.828 Y84.173 E.0012
G1 X211.809 Y84.101 E.00211
G1 X211.88 Y84.121 E.00209
G1 X211.88 Y84.121 F42000
G1 X211.481 Y85.066
G1 F3893
G1 X211.517 Y84.887 E.00516
;WIDTH:0.41646
G1 X211.617 Y84.806 E.004
;WIDTH:0.449999
G1 X211.717 Y84.726 E.00433
G1 X217.119 Y79.324 E.25859
G1 X217.279 Y79.125 E.00864
;WIDTH:0.38292
G1 X217.791 Y79.007 E.01485
;WIDTH:0.41646
G1 X217.83 Y79.079 E.00254
;WIDTH:0.449999
G1 X217.868 Y79.151 E.00276
G1 X211.562 Y85.457 E.30186
G1 X211.477 Y86.117 E.02252
G1 X218.527 Y79.068 E.33746
G1 X219.118 Y79.053 E.02001
G1 X211.439 Y86.732 E.36759
G1 X211.469 Y87.277 E.01848
G1 X219.689 Y79.057 E.39349
G1 X220.204 Y79.118 E.01755
G1 X211.512 Y87.81 E.41608
G1 X211.604 Y88.293 E.01664
G1 X220.705 Y79.192 E.43566
G1 X221.163 Y79.31 E.01601
G1 X211.705 Y88.768 E.45275
G1 X211.847 Y89.202 E.01546
G1 X221.615 Y79.434 E.46759
G1 X222.028 Y79.597 E.01503
G1 X211.991 Y89.634 E.48046
G1 X212.178 Y90.023 E.01461
G1 X222.44 Y79.76 E.49126
G1 X222.814 Y79.963 E.0144
G1 X212.365 Y90.411 E.50016
G1 X212.575 Y90.777 E.01428
G1 X223.185 Y80.167 E.50789
G1 X223.532 Y80.396 E.01407
G1 X212.798 Y91.129 E.51381
G1 X213.04 Y91.463 E.01396
G1 X223.865 Y80.638 E.51819
G1 X224.187 Y80.892 E.01388
G1 X213.301 Y91.778 E.52111
G1 X213.565 Y92.09 E.01383
G1 X224.484 Y81.17 E.52271
G1 X224.781 Y81.449 E.01379
G1 X213.862 Y92.368 E.52269
G1 X214.159 Y92.647 E.01379
G1 X225.045 Y81.761 E.52111
G1 X225.306 Y82.076 E.01385
G1 X214.482 Y92.899 E.51811
G1 X214.816 Y93.142 E.01398
G1 X225.546 Y82.411 E.51366
G1 X225.77 Y82.764 E.01415
G1 X215.163 Y93.37 E.50773
G1 X215.535 Y93.574 E.01436
G1 X225.985 Y83.124 E.50023
G1 X226.169 Y83.516 E.01466
G1 X215.91 Y93.775 E.49109
G1 X216.322 Y93.938 E.015
G1 X226.353 Y83.907 E.48018
G1 X226.496 Y84.34 E.01544
G1 X216.734 Y94.102 E.4673
G1 X217.187 Y94.224 E.01588
G1 X226.637 Y84.775 E.45234
G1 X226.737 Y85.251 E.01646
G1 X217.646 Y94.342 E.43518
G1 X218.148 Y94.415 E.01717
G1 X226.829 Y85.734 E.41555
G1 X226.87 Y86.268 E.01813
G1 X218.659 Y94.48 E.39308
G1 X219.232 Y94.483 E.0194
G1 X226.898 Y86.816 E.36699
G1 X226.86 Y87.43 E.02082
G1 X219.829 Y94.461 E.33657
G1 X219.829 Y94.461 F42000
G1 X221.081 Y94.401
;WIDTH:0.38292
G1 F3893
G1 X220.559 Y94.523 E.01516
;WIDTH:0.41646
G1 X220.524 Y94.45 E.00251
;WIDTH:0.449999
G1 X220.488 Y94.377 E.00276
G1 X226.772 Y88.094 E.30079
G1 X226.613 Y88.828 E.02542
G1 X221.24 Y94.201 E.2572
G1 X221.876 Y94.071 E.02197
;WIDTH:0.38292
G1 X221.805 Y94.052 E.00208
G1 X221.824 Y94.123 E.00208
G1 X221.865 Y94.112 E.0012
;WIDTH:0.41646
G1 X221.992 Y94.005 E.00516
;WIDTH:0.449999
G1 X222.12 Y93.897 E.00567
G1 X226.317 Y89.7 E.20091
G1 X226.422 Y89.571 E.00563
;WIDTH:0.41646
